!!!OTL: KREIS KREIS KESSEL
!!!ARE: Europa, Mitteleuropa, Deutschland, Weimar
!!!SCT: K2073
!!!YEM: Copyright 1995, estate of Helmut Schaffrath.
**kern
*ICvox
*Ivox
*M2/4
*k[b-]
*F:
=1
{4cc
4dd
=2
4cc
8a
8r}
=3
{8cc
8cc
8dd
8dd
=4
4cc
8a
8r}
=5
{8b-
8b-
8g
8g
=6
8cc
8cc
4a}
=7
{8.dd
16cc
8b-
8a
=8
8g
8g
4f}
==
!!!AGN: Kinder - Lied, Reigen, Tanz - Spiel
!!!ONB: ESAC (Essen Associative Code) Database: KINDER
!!!AMT: simple duple
!!!AIN: vox
!!!EED: Helmut Schaffrath
!!!EEV: 1.0
*-
